X:1
T:Benjamin Bowmaneer
M:3/4
L:1/4
K:F
 D/2D/2| G G A| F F D| B A G| A/2F/2 D D/2D/2| D G A| F F D| B B c|\
 d2 B/2c/2| d c B| c/2B/2 A A| B A G| A/2F/2 D2| G3/2 G/2 G| d3/2 d/2 d|\
 c B A| G2||
